icons/icn_agujero.svg

<svg width="24" xmlns="http://www.w3.org/2000/svg" height="24" id="screenshot-0ef66420-1100-8022-8006-9da5e43d2bfb" viewBox="0 0 24 24" xmlns:xlink="http://www.w3.org/1999/xlink" fill="none" version="1.1"><g id="shape-0ef66420-1100-8022-8006-9da5e43d2bfb"><g class="frame-container-wrapper"><g class="frame-container-blur"><g class="frame-container-shadows"><g fill="none"><g class="fills" id="fills-0ef66420-1100-8022-8006-9da5e43d2bfb"><rect rx="0" ry="0" x="0" y="0" width="24" height="24.000000000000455" transform="matrix(1, 0, 0, 1, 0, 0)" class="frame-background"/></g><g class="frame-children"><g id="shape-0ef66420-1100-8022-8006-9da1af52b7bb" rx="0" ry="0"><g id="shape-0ef66420-1100-8022-8006-9da0ce821894" style="opacity: 1;"><g class="fills" id="fills-0ef66420-1100-8022-8006-9da0ce821894"><path d="M12.002734184265137,2.9986572265625C7.042040824890137,2.9986572265625,3.004199266433716,7.0361328125,3.004199266433716,11.9971923828125C3.004199266433716,16.9583740234375,7.042040824890137,20.9957275390625,12.002734184265137,20.9957275390625C16.964160919189453,20.9957275390625,21.001270294189453,16.9583740234375,21.001270294189453,11.9971923828125C21.001270294189453,7.0361328125,16.964160919189453,2.9986572265625,12.002734184265137,2.9986572265625ZM12.002734184265137,4.4677734375C16.171680450439453,4.4677734375,19.532276153564453,7.8287353515625,19.532276153564453,11.9971923828125C19.532276153564453,16.1656494140625,16.171680450439453,19.5341796875,12.002734184265137,19.5341796875C7.834765434265137,19.5341796875,4.465624809265137,16.1656494140625,4.465624809265137,11.9971923828125C4.465624809265137,7.8287353515625,7.834765434265137,4.4677734375,12.002734184265137,4.4677734375Z" style="display: inline; stroke-linejoin: round; fill: rgb(0, 0, 0); fill-opacity: 1;"/></g></g><g id="shape-0ef66420-1100-8022-8006-9da0ce8265ce" style="opacity: 1;"><g class="fills" id="fills-0ef66420-1100-8022-8006-9da0ce8265ce"><path d="M10.998827934265137,6.59375C8.573779106140137,6.59375,6.591845512390137,8.5753173828125,6.591845512390137,11.000732421875C6.591845512390137,13.4261474609375,8.573779106140137,15.40771484375,10.998827934265137,15.40771484375C13.424609184265137,15.40771484375,15.405810356140137,13.4261474609375,15.405810356140137,11.000732421875C15.405810356140137,8.5753173828125,13.424609184265137,6.59375,10.998827934265137,6.59375ZM10.998827934265137,8.062744140625C12.631884574890137,8.062744140625,13.936816215515137,9.367919921875,13.936816215515137,11.000732421875C13.936816215515137,12.6334228515625,12.631884574890137,13.938720703125,10.998827934265137,13.938720703125C9.366503715515137,13.938720703125,8.060839653015137,12.6334228515625,8.060839653015137,11.000732421875C8.060839653015137,9.367919921875,9.366503715515137,8.062744140625,10.998827934265137,8.062744140625Z" style="display: inline; stroke-linejoin: round; fill: rgb(0, 0, 0); fill-opacity: 1;"/></g></g></g></g></g></g></g></g></g></svg>

<svg fill="none" viewBox="0 0 24 24"><g class="frame-container-wrapper"><g class="frame-container-blur"><g class="frame-container-shadows"><g class="fills"><rect width="24" height="24" class="frame-background" rx="0" ry="0"/></g><g class="frame-children"><path fill="#000" d="M12.0027 2.9987c-4.9607 0-8.9985 4.0374-8.9985 8.9985 0 4.9612 4.0378 8.9985 8.9985 8.9985 4.9615 0 8.9986-4.0373 8.9986-8.9985 0-4.961-4.0371-8.9985-8.9986-8.9985Zm0 1.469c4.169 0 7.5296 3.361 7.5296 7.5295 0 4.1684-3.3606 7.537-7.5296 7.537-4.168 0-7.537-3.3686-7.537-7.537 0-4.1685 3.369-7.5294 7.537-7.5294Z" class="fills"/><path fill="#000" d="M10.9988 6.5938c-2.425 0-4.407 1.9815-4.407 4.407 0 2.4253 1.982 4.407 4.407 4.407 2.4258 0 4.407-1.9817 4.407-4.407 0-2.4255-1.9812-4.407-4.407-4.407Zm0 1.469c1.633 0 2.938 1.3051 2.938 2.938 0 1.6326-1.305 2.938-2.938 2.938-1.6323 0-2.938-1.3054-2.938-2.938 0-1.6329 1.3057-2.938 2.938-2.938Z" class="fills"/></g></g></g></g></svg>
